X:13
T:The Wreck of the Nova
R:reel
C: 1976, 2010 L.E. McCullough
M:4/4 
L:1/8
K:Edor
|:~E3F G~E3|F~D3 A~D3|~E3F G~E3|F~D3 ~E3D|
~E3F GBEG|F~D3 d~D3|~E3F GBEG|1 FEDF ~E3D:|2FEDF ~E3A|]
|:B~e3 gedB|~A2FA DFAd|B~e3 gfeg|~f3a g~e3|
[1 B~e3 gbeg|fdAF DEFA|B~e3 gedB|AGFD ~E3A:|
[2 e~g3 bgeg|fdAF D~F3|(3B^cd ef gedB|A~F3 ~E3D|]
<end>
<start>
